X: 8206
T: Coolinarne
R: jig
M: 6/8
K: Gmajor
|:DGG BAG|B/c/de ~g3|edB AB/c/d|edB AGE|
DGG BAG|B/c/de ~g3|edB ~A3|1 AGF GFE:|2 AGF G3||
|:Bdd eda|agf g2a|bag edB|BdB AGA|
Bdd eda|agf ~g3|bag edB|AGF G3:|

